icons/fill-new-food-fruit-grape.svg

<svg xmlns="http://www.w3.org/2000/svg" width="32px" height="32px" viewBox="0 0 32 32" version="1.1">
    <title>fill-new-food-fruit-grape</title>
    <g id="fill-new-food-fruit-grape" stroke-width="1" fill-rule="evenodd">
        <path d="M15.9996713,23.7450814 C17.1335669,24.5360955 18.5126081,25 20,25 C20.339177,25 20.6727198,24.975877 20.9990063,24.9292532 L21,25 C21,27.7614237 18.7614237,30 16,30 C13.3112453,30 11.1181819,27.8776933 11.0046195,25.2168896 L11.0005109,24.9277866 C11.3271353,24.9758666 11.6607493,25 12,25 C13.4497475,25 14.7965593,24.5592803 15.9137666,23.8045099 L15.9996713,23.7450814 Z M19.9996713,16.7450814 C21.1335669,17.5360955 22.5126081,18 24,18 C24.339177,18 24.6727198,17.975877 24.9990063,17.9292532 L25,18 C25,20.5508622 23.0897959,22.6555723 20.6218042,22.9617139 L20.4246512,22.9814797 L20.1917461,22.9963253 L20,23 C19.0887467,23 18.2344294,22.7562279 17.4987029,22.3303384 L17.7343122,22.0140592 L17.8894171,21.7844331 L17.9593764,21.6727532 C18.0302821,21.5580738 18.0979603,21.4412001 18.1622865,21.3222576 L18.2784762,21.0987674 C18.3344719,20.9855602 18.387481,20.8706237 18.4374154,20.7540578 L18.3234929,21.0050876 C18.7574227,20.0944709 19,19.0755639 19,18 C19,17.777487 18.9896178,17.5573988 18.9693114,17.3401936 C19.244738,17.2111102 19.51037,17.0645892 19.7647889,16.9020525 L19.9996713,16.7450814 Z M12,23 L11.860022,22.9980784 L11.6574842,22.9884524 L11.4681595,22.9720482 L11.4302915,22.9678991 C9.01046515,22.6934388 7.11443022,20.6916867 7.00499203,18.225448 L7.00051086,17.9277866 C7.32713533,17.9758666 7.66074933,18 8,18 C9.44974747,18 10.7965593,17.5592803 11.9137666,16.8045099 L11.9996713,16.7450814 C12.8747084,17.3555139 13.8957381,17.7711413 14.9998923,17.9290957 L15.340362,17.9693272 L15.635,17.99 L15.7959226,17.9970706 L16,18 C16.2378019,18 16.4728343,17.9881421 16.7045381,17.9649853 C16.8029915,17.9551491 16.9010805,17.9432391 16.9985225,17.9293223 L17,18 L16.9935523,18.2561468 L16.9755407,18.4976954 L16.9471146,18.7298443 C16.9263632,18.8717685 16.8996078,19.0119332 16.8671382,19.1498936 L16.8037095,19.3918813 L16.7771667,19.4805439 L16.7300127,19.6249905 L16.6541026,19.8310472 L16.5488542,20.0784837 L16.4502227,20.2816775 L16.3233753,20.5132875 L16.2843415,20.5791244 L16.1587918,20.7766402 L16.0002202,21.0001943 C15.6161296,21.5114938 15.1362944,21.9467614 14.5873338,22.2793782 L14.4995405,22.3300156 C14.4140999,22.3796023 14.3270484,22.426716 14.2384838,22.4712613 L13.9749292,22.5942636 L13.7153762,22.6979878 C13.552053,22.7576378 13.3847474,22.8090139 13.2139665,22.8516088 L12.96273,22.9073992 L12.7426227,22.9452252 L12.5634,22.9686013 L12.3292872,22.9893285 L12.2715758,22.9927491 C12.1817804,22.9975596 12.0911752,23 12,23 Z M8,6 C9.63573058,6 11.0880049,6.7854695 12.0002202,7.99980567 L12.1578508,8.22195702 L12.323286,8.48655912 L12.4501679,8.71821572 L12.5142026,8.84741878 L12.5488939,8.92160308 L12.6448695,9.14567986 L12.7488143,9.4308252 L12.7771633,9.51945156 L12.8226237,9.67527646 C12.8385062,9.73323798 12.8533229,9.79141261 12.8671096,9.84998458 C12.8996078,9.98806679 12.9263632,10.1282315 12.9471411,10.270337 L12.9755578,10.5024776 L12.9938696,10.7502201 L12.9984602,10.8746574 L13,11 L12.994,11.223 L12.9826542,11.4194633 L12.9471146,11.7298443 C12.9263632,11.8717685 12.8996078,12.0119332 12.8671382,12.1498936 L12.8037095,12.3918813 L12.7771667,12.4805439 L12.7300127,12.6249905 L12.6452646,12.8533345 L12.558,13.055 L12.4470157,13.2876334 L12.3233753,13.5132875 L12.2843415,13.5791244 L12.1587918,13.7766402 L12.0002202,14.0001943 C11.6148445,14.5132045 11.1330825,14.9496732 10.5818214,15.2827133 L10.4872816,15.3384213 C10.3313531,15.4280104 10.170137,15.509435 10.0042165,15.5821117 L9.70859604,15.7001183 L9.46394034,15.7822331 L9.16484127,15.8635152 L8.91500374,15.9164297 L8.86373617,15.9256348 C8.7852734,15.939334 8.7061784,15.9511689 8.62650079,15.961129 L8.4484841,15.9801587 L8.25763564,15.9934761 C8.17254038,15.9978021 8.08652686,16 8,16 L7.72099562,15.992347 L7.55027093,15.9800487 L7.43029153,15.9678991 C4.93713708,15.6851218 3,13.5687822 3,11 C3,8.23857625 5.23857625,6 8,6 Z M19,2 C19.5522847,2 20,2.44771525 20,3 C20,3.55228475 19.5522847,4 19,4 L17,4 L17.0004208,6.10010355 C18.2204139,6.34785875 19.2790744,7.03982019 20.0002202,7.99980567 L20.1578508,8.22195702 L20.323286,8.48655912 L20.4501679,8.71821572 L20.5142026,8.84741878 L20.5488939,8.92160308 L20.6448695,9.14567986 L20.7488143,9.4308252 L20.7771633,9.51945156 L20.8226237,9.67527646 C20.8385062,9.73323798 20.8533229,9.79141261 20.8671096,9.84998458 C20.8996078,9.98806679 20.9263632,10.1282315 20.9471411,10.270337 L20.9755578,10.5024776 L20.9938696,10.7502201 L20.9984602,10.8746574 L21,11 L20.994,11.223 L20.9826542,11.4194633 L20.9471146,11.7298443 C20.9263632,11.8717685 20.8996078,12.0119332 20.8671382,12.1498936 L20.8037095,12.3918813 L20.7771667,12.4805439 L20.7300127,12.6249905 C20.6769382,12.7795433 20.6163798,12.9309409 20.5488542,13.0784837 L20.4502227,13.2816775 L20.3233753,13.5132875 L20.2843415,13.5791244 L20.1587918,13.7766402 L20.0002202,14.0001943 C19.2128043,15.0483982 18.0229913,15.7770541 16.6601346,15.9568088 L16.3519415,15.9873889 L16.1919086,15.996343 L16,16 L15.8278568,15.9970922 L15.6571727,15.9884313 L15.5433464,15.9794262 L15.4016093,15.9645622 C14.7149064,15.8826634 14.0709346,15.6615858 13.4987029,15.3303384 L13.7343122,15.0140592 L13.864,14.821 L13.9832634,14.634806 L14.0733636,14.482688 L14.1622865,14.3222576 L14.3602188,13.9276721 L14.4609788,13.6976088 C14.808334,12.8673477 15,11.9560568 15,11 C15,9.36523714 14.439614,7.86135944 13.5004595,6.6699844 C13.9584065,6.40405708 14.4632037,6.20915201 14.9994489,6.10016616 L15,4 L13,4 C12.4477153,4 12,3.55228475 12,3 C12,2.44771525 12.4477153,2 13,2 L19,2 Z M24,6 C26.7614237,6 29,8.23857625 29,11 C29,13.5508622 27.0897959,15.6555723 24.6218042,15.9617139 L24.4246512,15.9814797 L24.1917461,15.9963253 L24,16 C23.6962489,16 23.398824,15.9729142 23.1100089,15.9210261 L22.8246608,15.8610787 C22.6555212,15.8203296 22.4897324,15.7709822 22.3277828,15.7135249 C22.0383982,15.6108753 21.7610132,15.4821818 21.4987029,15.3303384 L21.735712,15.0120647 L21.928,14.722 L22.0735116,14.4826341 L22.1622865,14.3222576 L22.3602367,13.9276374 L22.4609788,13.6976088 C22.808334,12.8673477 23,11.9560568 23,11 C23,9.36523714 22.439614,7.86135944 21.5004595,6.6699844 C22.2344294,6.24377212 23.0887467,6 24,6 Z" id="&#24418;&#29366;" fill-rule="nonzero" />
    </g>
</svg>

<svg xmlns="http://www.w3.org/2000/svg" viewBox="0 0 32 32"><path fill="currentColor" d="M16 23.745A6.968 6.968 0 0 0 20 25c.34 0 .673-.024.999-.07L21 25a5 5 0 0 1-9.995.217l-.004-.29a6.967 6.967 0 0 0 4.913-1.123zm4-7A6.968 6.968 0 0 0 24 18c.34 0 .673-.024.999-.07L25 18a5 5 0 0 1-4.378 4.962l-.197.02-.233.014L20 23a4.977 4.977 0 0 1-2.501-.67l.235-.316.155-.23.07-.111c.071-.115.139-.232.203-.35l.116-.224c.056-.113.11-.228.16-.345l-.115.251a6.967 6.967 0 0 0 .646-3.665c.276-.129.541-.275.796-.438zM12 23l-.14-.002-.203-.01-.189-.016-.038-.004a5.001 5.001 0 0 1-4.425-4.743l-.004-.297a6.967 6.967 0 0 0 4.913-1.123l.086-.06a6.96 6.96 0 0 0 3 1.184l.34.04.295.021.16.007L16 18a7.083 7.083 0 0 0 .999-.07L17 18l-.006.256-.018.242-.029.232c-.02.142-.047.282-.08.42l-.063.242-.027.089-.047.144-.076.206-.105.247-.099.204-.127.231-.039.066-.125.198L16 21a5.026 5.026 0 0 1-1.413 1.28l-.087.05c-.086.05-.173.097-.262.141l-.263.123-.26.104a4.96 4.96 0 0 1-.501.154l-.251.055-.22.038-.18.024-.234.02-.057.004c-.09.005-.18.007-.272.007M8 6c1.636 0 3.088.785 4 2l.158.222.165.265.127.231.064.13.035.074.096.224.104.285.028.088.046.156a4.966 4.966 0 0 1 .124.595l.029.232.018.248.004.125L13 11l-.006.223-.011.196-.036.31c-.02.143-.047.283-.08.42l-.063.243-.027.089-.047.144-.085.228-.087.202-.111.233-.124.225-.039.066-.125.198L12 14c-.385.513-.867.95-1.418 1.283l-.095.055c-.156.09-.317.171-.483.244l-.295.118-.245.082-.3.082-.249.052-.051.01a4.947 4.947 0 0 1-.237.035l-.179.02-.19.012A5.078 5.078 0 0 1 8 16l-.279-.008-.17-.012-.12-.012A5 5 0 0 1 8 6m11-4a1 1 0 0 1 0 2h-2v2.1A5 5 0 0 1 20 8l.158.222.165.265.127.231.064.13.035.074.096.224.104.285.028.088.046.156a4.966 4.966 0 0 1 .124.595l.029.232.018.248.004.125L21 11l-.006.223-.011.196-.036.31c-.02.143-.047.283-.08.42l-.063.243-.027.089-.047.144a4.965 4.965 0 0 1-.181.453l-.099.204-.127.231-.039.066-.125.198L20 14a4.996 4.996 0 0 1-3.34 1.957l-.308.03-.16.01L16 16l-.172-.003-.17-.009-.115-.009-.141-.014a4.967 4.967 0 0 1-1.903-.635l.235-.316.13-.193.12-.186.09-.152.088-.16.198-.395.101-.23c.347-.83.539-1.742.539-2.698a6.97 6.97 0 0 0-1.5-4.33c.458-.266.963-.46 1.5-.57V4h-2a1 1 0 0 1 0-2zm5 4a5 5 0 0 1 .622 9.962l-.197.02-.233.014L24 16a5.03 5.03 0 0 1-.89-.079l-.285-.06a4.961 4.961 0 0 1-1.326-.53l.237-.319.192-.29.146-.24.088-.16.198-.394.101-.23c.347-.83.539-1.742.539-2.698a6.97 6.97 0 0 0-1.5-4.33A4.963 4.963 0 0 1 24 6"/></svg>
